src/shared/assets/images/tv.svg

<svg width="25" height="21" viewBox="0 0 25 21" fill="none" xmlns="http://www.w3.org/2000/svg">
<g clip-path="url(#clip0_6_14)">
<path d="M2.50977 16.875H21.9043C22.7311 16.875 23.3561 16.6634 23.7793 16.2402C24.2025 15.8171 24.4141 15.1921 24.4141 14.3652V3.17383C24.4141 2.35352 24.2025 1.73177 23.7793 1.30859C23.3561 0.885415 22.7311 0.673828 21.9043 0.673828H2.50977C1.68294 0.673828 1.05794 0.885415 0.634766 1.30859C0.211589 1.73177 0 2.35352 0 3.17383V14.3652C0 15.1921 0.211589 15.8171 0.634766 16.2402C1.05794 16.6634 1.68294 16.875 2.50977 16.875ZM2.53906 15.3027C2.22005 15.3027 1.97917 15.223 1.81641 15.0635C1.65365 14.904 1.57227 14.6647 1.57227 14.3457V3.20312C1.57227 2.88411 1.65365 2.64486 1.81641 2.48535C1.97917 2.32584 2.22005 2.24609 2.53906 2.24609H21.875C22.2005 2.24609 22.443 2.32584 22.6025 2.48535C22.762 2.64486 22.8418 2.88411 22.8418 3.20312V14.3457C22.8418 14.6647 22.762 14.904 22.6025 15.0635C22.443 15.223 22.2005 15.3027 21.875 15.3027H2.53906ZM7.29492 20.1855H17.1191C17.334 20.1855 17.5195 20.109 17.6758 19.9561C17.8321 19.8031 17.9102 19.6159 17.9102 19.3945C17.9102 19.1797 17.8321 18.9942 17.6758 18.8379C17.5195 18.6816 17.334 18.6035 17.1191 18.6035H7.29492C7.08008 18.6035 6.89453 18.6816 6.73828 18.8379C6.58203 18.9942 6.50391 19.1797 6.50391 19.3945C6.50391 19.6159 6.58203 19.8031 6.73828 19.9561C6.89453 20.109 7.08008 20.1855 7.29492 20.1855Z" fill="#FFFBFB"/>
</g>
<defs>
<clipPath id="clip0_6_14">
<rect width="24.4141" height="20.1855" fill="white"/>
</clipPath>
</defs>
</svg>

<svg xmlns="http://www.w3.org/2000/svg" width="25" height="21" fill="none"><g clip-path="url(#a)"><path fill="#FFFBFB" d="M2.51 16.875h19.394q1.24 0 1.875-.635.636-.634.635-1.875V3.174q0-1.23-.635-1.865T21.904.674H2.51q-1.24 0-1.875.635T0 3.174v11.191q0 1.24.635 1.875t1.875.635m.03-1.572q-.479 0-.724-.24-.243-.239-.244-.717V3.203q0-.478.244-.718.245-.24.723-.239h19.336q.489 0 .727.24.24.238.24.717v11.143q0 .479-.24.717-.238.24-.727.24zm4.755 4.883h9.824q.322 0 .557-.23a.76.76 0 0 0 .234-.561.76.76 0 0 0-.234-.557.76.76 0 0 0-.557-.235H7.295a.76.76 0 0 0-.557.235.76.76 0 0 0-.234.556q0 .334.234.562.235.23.557.23"/></g><defs><clipPath id="a"><path fill="#fff" d="M0 0h24.414v20.186H0z"/></clipPath></defs></svg>
